X:15
T: Graf und Nonne (Die Nonne)
N: Q0155N
O: Mitteleuropa, Deutschland (BRD) , Nordrhein - Westfalen, Muenster
N: Anhaengsel an der dritten bzw. fuenften Zeile.
R: Ballade, Standesunterschied, vergebliche Werbung, Liebe;
M: 3/4
L: 1/8
K: G
D2 | G4D2 | D2G2B2 | B2A2
D2 | D2F2A2 | e2d2c2 | B4
GB | d4d2 | d2c2B2 | c2A2D2 | E2D2
D2 | D2F2A2 | e2d2c2 | B4
GB | d4d2 | d2c2B2 | c2A2D2 | E2D2
D2 | D2F2A2 | e2d2c2 | B4

